X:200
T: Snug in the Corner
S: "Treoir" 32/2
Z: B.Black
M: 4/4
L: 1/8
R: reel
K: G
DEGB A2 GB |dBAc B2 GE |DEGB ABGB |dBAc BG G2 :|
dgeg dg (3gfg|dedB cA (3AGA|dgeg dg (3gfg|\
dedc BG (3GFG |
dgeg dg (3gfg|dedB cA (3AGA|d^cdg edef|g2 af gedB ||
